X:35
T:Buckingham House
T: Commonly Called Athole Frose.
C: A. Mackintosh.
C: Var. by J. Scott Skinner
R: strathspey
M:C
L:1/8
Z: Jason R. Fruit <jason@gmail.com>
K:A
"^Original Key D."e |: c>A A/A/A [EA,]>A A>d | c>A A/A/A {g}a>e fd |   !>!c>A A/A/A [EA,]>A A>=c | (B/=c/d) =G>f {f}g>d B<d :|
K:A minor
|: A<aa>a a<ba>g & A8 | e<aa<b c'>ab>g & A8 | a>bc'a b^ga^f & A8 | {f}!f!"^*"[G,DGg]>e d<g B<[GG,] d>B :|
K:A
|: !>!c>A A/A/A !>![EA,]>A A/A/A | c>A A/A/A (3agf (3efd | !>!c>A A/A/A !>![EA,]>A A/A/A | B>=G "_D.C. to 2nd Strain."G/G/G (3gfe (3dcB :|
%%text * the lowest three notes of this chord are undersize in the original

